X: 29
T: Missa Se mieulx ne vient &mdash; Agnus Dei
C: Gaspar van Weerbeke
%%abc-version 2.0
%%abcx-abcm2ps-target-version 5.9.1 (29 Sep 2008)
%%abc-creator hum2abc beta
%%abcx-conversion-date 2022/03/06 13:05:55
%%abc-copyright Copyright 2014, Pavanello, Agnese
%%abc-edited-by Mair-Gruber, Roland
%%humdrum-veritas 3467559589
%%humdrum-veritas-data 3532632474
%%linebreak <none>
%%barnumbers 0
L: 1/4
M: 3/2
N: Derived from Gas0104e-Missa_Se_mieulx_ne_vient-Agnus.krn
%%staves [1 2 3 4]
V: 1 clef=treble
V: 2 clef=treble-8
V: 3 clef=treble-8
V: 4 clef=bass
K: C
[V:1] D2FGA3/_B/ | 
[V:2] A2>_B2Ad/e/ | 
[V:3] D6- | 
[V:4] z6 | 
[V:1] A_B2G2^F | 
[V:2] f>ed_BA2 | 
[V:3] D6 | 
[V:4] z6 | 
[V:1] GB2d>cB/A/ | 
[V:2] z2G>A B/c/d- | 
[V:3] G6- | 
[V:4] G,,4G,,3/A,,/ | 
[V:1] G2z2G2 | 
[V:2] de>dc/B/c2 | 
[V:3] G6 | 
[V:4] B,,C,2D,E,2 | 
[V:1] F2F>GA2 | 
[V:2] d4c2 | 
[V:3] A6 | 
[V:4] D,2>E,2F,2 | 
[V:1] DG>AB/c/d2 | 
[V:2] B2G>A B/c/d | 
[V:3] B6 | 
[V:4] G,2>E,2D,2 | 
[V:1] G2E>FG3/F/ | 
[V:2] e4e2 | 
[V:3] c6- | 
[V:4] C,4zE,- | 
[V:1] GA2G2^F | 
[V:2] zcfed2 | 
[V:3] c4A2 | 
[V:4] E,F,>E,C,D,2 | 
[V:1] Gd2BA2 | 
[V:2] zd2ef2 | 
[V:3] G4d2 | 
[V:4] G,,2zG,F,2 | 
[V:1] Gc2B2A | 
[V:2] g4e2 | 
[V:3] e2dBc2 | 
[V:4] E,2G,2A,2 | 
[V:1] B>AG2z2 | 
[V:2] e2B>cd3/c/ | 
[V:3] B2>G2G2 | 
[V:4] E,>F,G,>A,B,3/A,/ | 
[V:1] z6 | 
[V:2] B/A/BABc2 | 
[V:3] d2>B2A2 | 
[V:4] G,/F,/G,D,G,2^F, | 
[V:1] B2cB>AG | 
[V:2] B2z2e2 | 
[V:3] G2FG2E | 
[V:4] G,G,,A,,B,,C,2 | 
[V:1] ^FGAG2F | 
[V:2] ^fe^fd3 | 
[V:3] DG^FGA2 | 
[V:4] D,E,D,G,,D,2 | 
[V:1] G2z2z2 | 
[V:2] B>Gd2e2 | 
[V:3] G4zG | 
[V:4] zG,,B,,2C,2 | 
[V:1] z6 | 
[V:2] d2z2z2 | 
[V:3] B2c2Bd- | 
[V:4] B,,D,C,E,D,2 | 
[V:1] z2z2DF | 
[V:2] z6 | 
[V:3] d/c/A_BA/G/F2 | 
[V:4] F,2G,F,/E,/D,A, | 
[V:1] GA>GFEG | 
[V:2] z2z2G2 | 
[V:3] ED2d2^c | 
[V:4] G,F,D,2E,2 | 
[V:1] FD2d2^c | 
[V:2] AF2DA2 | 
[V:3] d2f2e2 | 
[V:4] D,4A,,2 | 
[V:1] dc/B/A2z2 | 
[V:2] DF>GA_BA | 
[V:3] d6 | 
[V:4] zD,2F,G,F, | 
[V:1] A4cd | 
[V:2] d2c2A3/B/ | 
[V:3] z2z2f2 | 
[V:4] D,2A,,2zD, | 
[V:1] cB2A2G | 
[V:2] cdBe3 | 
[V:3] ed2cB2 | 
[V:4] A,,B,,G,,A,,E,2 | 
[V:1] A2z2z2 | 
[V:2] cf>edcA | 
[V:3] Ad2BA2 | 
[V:4] F,D,2G,2F, | 
[V:1] z2zFGE | 
[V:2] BGA2G2 | 
[V:3] G2zd2c | 
[V:4] G,E,D,F,E,2 | 
[V:1] F>G A/B<cB/c/B/ | 
[V:2] Adc2c/d/e/f/ | 
[V:3] d>cA2e2 | 
[V:4] D,>E,F,>E,C,3/D,/ | 
[V:1] G>A B/A<BA/F- | 
[V:2] g2zgd/e/f | 
[V:3] e3d2d- | 
[V:4] E,>F, G,/F,<G,F,/D,- | 
[V:1] F/G/A/G<AG<EF/ | 
[V:2] dA>Bc>BG | 
[V:3] d2c2c2- | 
[V:4] D,/E,/F,/E,<F,E,<C,D,/ | 
[V:1] G/F<GF<DE/F/E/ | 
[V:2] zG>AB/c/dz | 
[V:3] cB2B3 | 
[V:4] E,/D,<E,D,<B,,C,/D,/C,/ | 
[V:1] FA2G2^F | 
[V:2] de2ded | 
[V:3] Ac2BA2 | 
[V:4] D,A,,2B,,C,D, | 
[V:1] G6- | 
[V:2] B2>G2B3/c/ | 
[V:3] G6- | 
[V:4] G,,6- | 
[V:1] G6 ||  
[V:2] d6 ||  
[V:3] G6 ||  
[V:4] G,,6 ||  
[V:1] [M:2/2]B4- | 
[V:2] [M:2/2]z4 | 
[V:3] [M:2/2]z4 | 
[V:4] [M:2/2]G,3A, | 
[V:1] B4- | 
[V:2] G3A | 
[V:3] z4 | 
[V:4] B,2E,2- | 
[V:1] B4- | 
[V:2] B2E2- | 
[V:3] z4 | 
[V:4] E,F,G,2 | 
[V:1] B4 | 
[V:2] EFG2 | 
[V:3] z4 | 
[V:4] G,,4 | 
[V:1] A4- | 
[V:2] D2zd- | 
[V:3] z4 | 
[V:4] z2D,3/E,/ | 
[V:1] A4 | 
[V:2] dc/B/cd | 
[V:3] z4 | 
[V:4] F,G,A,F, | 
[V:1] B4 | 
[V:2] B>cde- | 
[V:3] z4 | 
[V:4] G,4- | 
[V:1] z4 | 
[V:2] ed2c/B/ | 
[V:3] z4 | 
[V:4] G,4 | 
[V:1] z4 | 
[V:2] d>cA2 | 
[V:3] z4 | 
[V:4] D,3E, | 
[V:1] z4 | 
[V:2] D2zd- | 
[V:3] z4 | 
[V:4] F,3D, | 
[V:1] z4 | 
[V:2] dc/B/cd | 
[V:3] z4 | 
[V:4] E,3F, | 
[V:1] z4 | 
[V:2] BGA2 | 
[V:3] z4 | 
[V:4] G,E,C,D,- | 
[V:1] z4 | 
[V:2] D/E/F/G/ A/B/c/d/ | 
[V:3] z4 | 
[V:4] D,B,,A,,2 | 
[V:1] z4 | 
[V:2] B>GBA | 
[V:3] z4 | 
[V:4] G,,2G,A, | 
[V:1] D/E/F/G/ A/B/c/d/ | 
[V:2] dBA2 | 
[V:3] z4 | 
[V:4] B,G,2F, | 
[V:1] B>GBA- | 
[V:2] Gd2c- | 
[V:3] z4 | 
[V:4] G,>F,D,F,- | 
[V:1] AG2^F | 
[V:2] cBA2 | 
[V:3] z4 | 
[V:4] F,G,D,2 | 
[V:1] G4 | 
[V:2] G2z2 | 
[V:3] z4 | 
[V:4] zG,2A, | 
[V:1] z2D2 | 
[V:2] DG2A | 
[V:3] z4 | 
[V:4] B,2z2 | 
[V:1] G2A2 | 
[V:2] B2Ad- | 
[V:3] z4 | 
[V:4] z4 | 
[V:1] B2Ad- | 
[V:2] dc/B/cB- | 
[V:3] z4 | 
[V:4] z4 | 
[V:1] dc/B/cB- | 
[V:2] BA2G | 
[V:3] z4 | 
[V:4] z4 | 
[V:1] BA2G | 
[V:2] A2zE | 
[V:3] z4 | 
[V:4] z4 | 
[V:1] A2zE | 
[V:2] FAGF/E/ | 
[V:3] z4 | 
[V:4] z4 | 
[V:1] FAGF/E/ | 
[V:2] D2zG- | 
[V:3] z4 | 
[V:4] z4 | 
[V:1] D2z2 | 
[V:2] GFG3/B/ | 
[V:3] z4 | 
[V:4] z2zG,- | 
[V:1] z4 | 
[V:2] A>GEe | 
[V:3] z4 | 
[V:4] G,F,G,B, | 
[V:1] z4 | 
[V:2] fe/d/ce | 
[V:3] z4 | 
[V:4] A,G,/F,/E,G, | 
[V:1] z4 | 
[V:2] dfef- | 
[V:3] z4 | 
[V:4] F,E,/D,/C,D, | 
[V:1] z4 | 
[V:2] fd2^c | 
[V:3] z4 | 
[V:4] F,G,E,2 | 
[V:1] D>EFG | 
[V:2] d2z2 | 
[V:3] z4 | 
[V:4] D,2z2 | 
[V:1] FA2B | 
[V:2] D>EFG | 
[V:3] z4 | 
[V:4] z4 | 
[V:1] Ac>BG | 
[V:2] FA2B | 
[V:3] z4 | 
[V:4] z4 | 
[V:1] c>B A/G/B | 
[V:2] Ac>BG | 
[V:3] z4 | 
[V:4] z4 | 
[V:1] A>G F/E/D | 
[V:2] c>B A/G/B | 
[V:3] z4 | 
[V:4] z4 | 
[V:1] F>E D/C/D- | 
[V:2] A>G F/E/F | 
[V:3] z4 | 
[V:4] z4 | 
[V:1] DB,A,D | 
[V:2] DG2F | 
[V:3] z4 | 
[V:4] z2D,2 | 
[V:1] B,E2D- | 
[V:2] GEFG | 
[V:3] z4 | 
[V:4] E,C,D,G,, | 
[V:1] D^CD2 | 
[V:2] E2Dd- | 
[V:3] z4 | 
[V:4] A,,2B,,2 | 
[V:1] z4 | 
[V:2] dB2A | 
[V:3] z4 | 
[V:4] D,E,C,2 | 
[V:1] z2zd- | 
[V:2] B4 | 
[V:3] z4 | 
[V:4] B,,2B,,2 | 
[V:1] d/c/B2A | 
[V:2] dec2 | 
[V:3] z4 | 
[V:4] z4 | 
[V:1] B4- | 
[V:2] B4 | 
[V:3] z4 | 
[V:4] B,,>C,D,E,- | 
[V:1] B4 | 
[V:2] z4 | 
[V:3] z4 | 
[V:4] E,D,/C,/D,E, | 
[V:1] z4 | 
[V:2] B4 | 
[V:3] z4 | 
[V:4] B,,2zD,- | 
[V:1] z2A2 | 
[V:2] A2z2 | 
[V:3] z4 | 
[V:4] D,C,/B,,/C,D, | 
[V:1] G2B2 | 
[V:2] z4 | 
[V:3] z4 | 
[V:4] G,,2zG,- | 
[V:1] A2z2 | 
[V:2] z2A2 | 
[V:3] z4 | 
[V:4] G,F,/E,/F,G, | 
[V:1] z4 | 
[V:2] GA2B- | 
[V:3] z4 | 
[V:4] G,,C,>A,,D,- | 
[V:1] zGA2 | 
[V:2] BG2^F | 
[V:3] z4 | 
[V:4] D,B,,A,,2 | 
[V:1] B>cBA- | 
[V:2] G>ABc- | 
[V:3] z4 | 
[V:4] G,,2G,A, | 
[V:1] AG>^FF/E/ | 
[V:2] c/d/BA2 | 
[V:3] z4 | 
[V:4] F,G,D,2 | 
[V:1] G4- | 
[V:2] G4- | 
[V:3] z4 | 
[V:4] E,>D,B,,C, | 
[V:1] G4 ||  
[V:2] G4 ||  
[V:3] z4 ||  
[V:4] G,,4 ||  
[V:1] [M:2/2]z4 | 
[V:2] [M:2/2]D2G2- | 
[V:3] [M:2/2]z4 | 
[V:4] [M:2/2]z4 | 
[V:1] z4 | 
[V:2] G2G2 | 
[V:3] z4 | 
[V:4] G,,2C,2- | 
[V:1] z4 | 
[V:2] A2GA | 
[V:3] z4 | 
[V:4] C,2C,2 | 
[V:1] z2D2 | 
[V:2] B2z2 | 
[V:3] z4 | 
[V:4] D,4 | 
[V:1] G4 | 
[V:2] G>ABc- | 
[V:3] z4 | 
[V:4] E,4- | 
[V:1] G2A2- | 
[V:2] c/B/Gd2 | 
[V:3] z4 | 
[V:4] E,2D,2 | 
[V:1] AG/A/B2- | 
[V:2] z2B3/c/ | 
[V:3] D2G2- | 
[V:4] z4 | 
[V:1] B2B2 | 
[V:2] de>dB | 
[V:3] G2G2 | 
[V:4] z4 | 
[V:1] c3B/A/ | 
[V:2] e2zc | 
[V:3] A3G/A/ | 
[V:4] z4 | 
[V:1] G3A | 
[V:2] d>edg- | 
[V:3] B4- | 
[V:4] G,4 | 
[V:1] Bcd2 | 
[V:2] ged2 | 
[V:3] B2B2 | 
[V:4] G,2G,2 | 
[V:1] z2c2 | 
[V:2] e3f | 
[V:3] c3B/A/ | 
[V:4] C,4 | 
[V:1] B2d2- | 
[V:2] g>fdg- | 
[V:3] G4 | 
[V:4] z4 | 
[V:1] dcA2 | 
[V:2] gf/e/f2 | 
[V:3] d4 | 
[V:4] z4 | 
[V:1] z4 | 
[V:2] g2g/f/e/d/ | 
[V:3] e4 | 
[V:4] z2C,2- | 
[V:1] c2B2- | 
[V:2] cB/A/G2 | 
[V:3] e3d/c/ | 
[V:4] C,D,E,3/F,/ | 
[V:1] Bd>cB- | 
[V:2] z4 | 
[V:3] B2d2 | 
[V:4] G,>F,D,G,- | 
[V:1] BA/G/A2 | 
[V:2] z4 | 
[V:3] c4 | 
[V:4] G,F,/E,/F,2 | 
[V:1] B4 | 
[V:2] g3f/e/ | 
[V:3] B3G | 
[V:4] G,2G,,3/A,,/ | 
[V:1] z4 | 
[V:2] de2d/c/ | 
[V:3] G4 | 
[V:4] B,,C,2B,,/A,,/ | 
[V:1] z2B2 | 
[V:2] BG2F/E/ | 
[V:3] z2G2 | 
[V:4] G,,4 | 
[V:1] AB2A/G/ | 
[V:2] FG2F/E/ | 
[V:3] d3c | 
[V:4] z4 | 
[V:1] AG2^F | 
[V:2] FED2 | 
[V:3] A2A2 | 
[V:4] z4 | 
[V:1] G2zG | 
[V:2] d>cBG | 
[V:3] G3E | 
[V:4] G,,>A,,B,,C, | 
[V:1] AcBG | 
[V:2] c2zd- | 
[V:3] F2G2 | 
[V:4] A,,B,,G,,G,- | 
[V:1] A2Bc- | 
[V:2] d/e/fde- | 
[V:3] D2G2 | 
[V:4] G,F,G,C,- | 
[V:1] c/B/A/G<FE/ | 
[V:2] ef>ed/c/ | 
[V:3] A4 | 
[V:4] C,D,>C,D, | 
[V:1] G2zD- | 
[V:2] B>cdB- | 
[V:3] G4 | 
[V:4] E,>D,B,,G,,- | 
[V:1] DC/B,<CD/ | 
[V:2] B/A/G2^F | 
[V:3] z4 | 
[V:4] G,,B,,A,,2 | 
[V:1] B,2z2 | 
[V:2] G2d2 | 
[V:3] G4 | 
[V:4] G,,4 | 
[V:1] D>EDG- | 
[V:2] B>Gde- | 
[V:3] B4 | 
[V:4] zG,2E, | 
[V:1] GGA2 | 
[V:2] e/d/c/B/A2 | 
[V:3] c4 | 
[V:4] C,E,F,2 | 
[V:1] B2zG | 
[V:2] zG2F/E/ | 
[V:3] B2d2- | 
[V:4] G,2z2 | 
[V:1] FGA2 | 
[V:2] DG2^F | 
[V:3] dc/B/A2 | 
[V:4] z4 | 
[V:1] D3C/B,/ | 
[V:2] G2D3/E/ | 
[V:3] B3A/G/ | 
[V:4] zG,,>A,,B,,/C,/ | 
[V:1] A,>B,CD- | 
[V:2] F/G/A2_B | 
[V:3] F3D | 
[V:4] D,2z2 | 
[V:1] D^CDF- | 
[V:2] A2z2 | 
[V:3] E2D2 | 
[V:4] A,,2B,,D,- | 
[V:1] F/G/A2_B- | 
[V:2] z4 | 
[V:3] d2d2- | 
[V:4] D,/E,/F,2G,- | 
[V:1] B/A/G/F/E2 | 
[V:2] z4 | 
[V:3] d2^c2 | 
[V:4] G,/F,/E,/D,/A,2 | 
[V:1] D2A_B | 
[V:2] A3G | 
[V:3] d4- | 
[V:4] D,>E,F,G, | 
[V:1] Ad>c_B- | 
[V:2] A_BA_B- | 
[V:3] d4 | 
[V:4] F,G,D,G,- | 
[V:1] B/A/AG2 | 
[V:2] B/A/d2^c | 
[V:3] z4 | 
[V:4] G,/F,//E,//D,E,2 | 
[V:1] z2A2- | 
[V:2] d3c/B/ | 
[V:3] f4- | 
[V:4] D,4- | 
[V:1] A2B2 | 
[V:2] A2z2 | 
[V:3] f2d2 | 
[V:4] D,2G,2 | 
[V:1] c>BG3/A/ | 
[V:2] z4 | 
[V:3] e4 | 
[V:4] C,>D,E,3/F,/ | 
[V:1] B>cd2- | 
[V:2] B2G2 | 
[V:3] d4 | 
[V:4] G,3F,/E,/ | 
[V:1] dc/B/A2 | 
[V:2] A4 | 
[V:3] f4- | 
[V:4] D,4- | 
[V:1] z2d2 | 
[V:2] F2F/G/A/B/ | 
[V:3] f2f2 | 
[V:4] D,4 | 
[V:1] c2BB- | 
[V:2] c2G3/A/ | 
[V:3] e2d2- | 
[V:4] A,2B,G,- | 
[V:1] B/A/G/F/EA- | 
[V:2] B/c/dc3/d/ | 
[V:3] d2c2 | 
[V:4] G,2A,2 | 
[V:1] AG/F/G2 | 
[V:2] e>dBe | 
[V:3] B4 | 
[V:4] E,2zE, | 
[V:1] zF>GA | 
[V:2] cd>cA | 
[V:3] A4 | 
[V:4] F,D,>E,F, | 
[V:1] _B2G2 | 
[V:2] dedg- | 
[V:3] G2_B2 | 
[V:4] G,2G,,2 | 
[V:1] A2zd- | 
[V:2] g^f/e/^f2 | 
[V:3] A4 | 
[V:4] D,4 | 
[V:1] d/c/B/A<BA/ | 
[V:2] g4 | 
[V:3] G4 | 
[V:4] G,,2z2 | 
[V:1] G/F/G2A- | 
[V:2] d>cBA | 
[V:3] z2d2 | 
[V:4] G,3F,- | 
[V:1] AG/F/E2 | 
[V:2] z4 | 
[V:3] c2c2 | 
[V:4] F,E,A,2 | 
[V:1] z2AB | 
[V:2] ABAd | 
[V:3] d4- | 
[V:4] D,>E,F,G,- | 
[V:1] d>cBA/G/ | 
[V:2] B2Gd- | 
[V:3] d2cB | 
[V:4] G,G,,>A,,B,,/C,/ | 
[V:1] F>GA3/B/ | 
[V:2] d/e<fe/c | 
[V:3] A4 | 
[V:4] D,>E,F,3/E,/ | 
[V:1] c>BG2 | 
[V:2] z4 | 
[V:3] e4- | 
[V:4] C,4 | 
[V:1] z2c2 | 
[V:2] c>BA2 | 
[V:3] e4- | 
[V:4] z4 | 
[V:1] BG2C- | 
[V:2] GEC2 | 
[V:3] e4- | 
[V:4] zC2A,- | 
[V:1] C/D/E/F<GA/ | 
[V:2] c>d e/f/g- | 
[V:3] e4 | 
[V:4] A,G,/F,/E,C, | 
[V:1] B2Ad- | 
[V:2] g2f2 | 
[V:3] d4- | 
[V:4] G,2D,3/E,/ | 
[V:1] d/c/BA3/G/ | 
[V:2] d2z2 | 
[V:3] d4 | 
[V:4] F,G,F,D, | 
[V:1] E2D2 | 
[V:2] z2d3/c/ | 
[V:3] c2B2 | 
[V:4] A,2D,G,- | 
[V:1] zd2c/B/ | 
[V:2] B/A/B2A/G/ | 
[V:3] G4 | 
[V:4] G,G,,>A,,B,, | 
[V:1] c/B/A/G<^FE/ | 
[V:2] ^F>GA2 | 
[V:3] A4 | 
[V:4] A,,D,3 | 
[V:1] G4- | 
[V:2] Bcde | 
[V:3] G4- | 
[V:4] G,,C,B,,C, | 
[V:1] G4 |]  
[V:2] d4 |]  
[V:3] G4 |]  
[V:4] G,,4 |]  


